src/topics/icons/raphael.svg

<svg height="256" preserveAspectRatio="xMidYMid" viewBox="0 0 256 256" width="256" xmlns="http://www.w3.org/2000/svg"><path d="m127.997302 247.451826c-14.063474 0-27.287779-5.474825-37.2336656-15.426108l-66.7826087-66.782609c-9.9566798-9.943188-15.44229779-23.170192-15.44229779-37.24176 0-14.074266 5.48561799-27.303968 15.44499599-37.2525534l66.7826087-66.7799104c9.9458874-9.9485849 23.1647964-15.42071145 37.2309674-15.42071145 14.063473 0 27.287778 5.47212655 37.236363 15.41801315l66.77991 66.7880053c9.95668 9.9377918 15.447695 23.1674938 15.447695 37.2444578 0 14.076965-5.488316 27.303969-15.450392 37.249856l-66.779911 66.777212c-9.945887 9.951283-23.170192 15.426108-37.233665 15.426108z" fill="#f89938"/><path d="m82.239747 58.3084267c0-25.2721581 20.488095-45.760253 45.760253-45.760253 25.274857 0 45.760253 20.4880949 45.760253 45.760253 0 25.2748564-20.485396 45.7602523-45.760253 45.7602523-25.274857.002699-45.760253-20.4853959-45.760253-45.7602523" fill="#39f"/><path d="m246.712571 159.026898c6.038183-9.127868 9.287429-19.820822 9.287429-31.017421 0-15.084945-5.881136-29.2600825-16.549494-39.9070051l-71.556529-71.5661656-.027077.0270775c-10.210757-10.2272193-24.312487-16.5633838-39.870962-16.5633838-15.558474 0-29.6574959 6.33887226-39.8655449 16.5660916l-.0243694-.0270776-71.5565287 71.5553346c-10.67106672 10.6604613-16.549495 24.8355984-16.549495 39.9151284 0 15.076822 5.87572057 29.25196 16.5440796 39.904298l64.5219103 64.523275c2.5858585 2.902721 5.3043947 5.618607 8.1691469 8.115165 10.5194352 9.967274 24.2150092 15.447785 38.7608012 15.447785 15.06838 0 29.240511-5.867722 39.895331-16.528183l69.615104-69.613869c.176-.173296.352002-.352009.528002-.528014l1.410715-1.408036c2.688751-2.683393 5.071532-5.594238 7.134803-8.683794.048739-.067695.100186-.132681.151632-.200375zm-11.591686-31.017421c0 7.018521-2.036195 13.717525-5.805321 19.452566-2.260933 3.08685-4.619345 5.783781-7.050865 8.115165l-.173292.173297c-11.445471 10.887914-24.377471 13.972055-35.351801 13.972055-6.038183 0-11.488794-.936886-15.772384-2.017283-25.081474-6.336165-52.34536-27.919741-64.822466-59.397481 6.723233 2.840444 14.107146 4.410945 21.851182 4.410945 29.09971 0 53.114349-22.1684517 56.054917-50.4997719l40.639949 40.6381009c6.72594 6.723375 10.430081 15.653576 10.430081 25.152407zm-107.122239-107.1326273c19.568587 0 35.481771 15.9189364 35.481771 35.4825211 0 19.5662927-15.915892 35.485229-35.481771 35.485229-19.563171 0-35.4790626-15.9189363-35.4790626-35.485229 0-19.5635847 15.9158916-35.4825211 35.4790626-35.4825211zm-96.6948647 132.2796183c-6.7232324-6.717959-10.4273732-15.648159-10.4273732-25.144283 0-9.498831 3.7014332-18.429033 10.4246655-25.144284l27.4940399-27.4973289c-7.1754191 24.4294343-10.2567878 50.1369329-8.6050875 74.7802799.5929875 8.857091 1.8168703 17.354051 3.5768787 25.4638zm47.0030568-70.2393615c6.0381829 47.2477505 43.4370089 93.8835455 87.5482369 105.0314035 7.186249 1.814201 14.231699 2.707763 21.046993 2.707763.097478 0 .197662-.008123.29514-.008123l-34.062933 34.066361c-6.717817 6.712543-15.645121 10.411347-25.138337 10.411347-6.609508 0-12.923877-1.830447-18.425934-5.182657l.01083-.018955c-2.166164-1.435114-4.229435-3.057064-6.235845-4.773785-.157047-.154342-.324924-.281608-.479264-.43595l-6.8829865-6.883132c-14.1531757-16.249284-23.0534032-40.426897-24.9677508-69.075025-1.4486224-21.678347 1.1534824-44.28275 7.2918504-65.8392475z" fill="#333"/></svg>

<?xml version="1.0" encoding="UTF-8" standalone="no" ?>
<svg width="256px" height="256px" viewBox="0 0 256 256" version="1.1" xmlns="http://www.w3.org/2000/svg" xmlns:xlink="http://www.w3.org/1999/xlink" preserveAspectRatio="xMidYMid">
    <g>
        <path d="M127.997302,247.451826 C113.933828,247.451826 100.709523,241.977001 90.7636364,232.025718 L23.9810277,165.243109 C14.0243479,155.299921 8.53872991,142.072917 8.53872991,128.001349 C8.53872991,113.927083 14.0243479,100.697381 23.9837259,90.7487956 L90.7663346,23.9688852 C100.712222,14.0203003 113.931131,8.54817375 127.997302,8.54817375 C142.060775,8.54817375 155.28508,14.0203003 165.233665,23.9661869 L232.013575,90.7541922 C241.970255,100.691984 247.46127,113.921686 247.46127,127.99865 C247.46127,142.075615 241.972954,155.302619 232.010878,165.248506 L165.230967,232.025718 C155.28508,241.977001 142.060775,247.451826 127.997302,247.451826 L127.997302,247.451826 L127.997302,247.451826 Z" fill="#F89938"></path>
        <path d="M82.239747,58.3084267 C82.239747,33.0362686 102.727842,12.5481737 128,12.5481737 C153.274857,12.5481737 173.760253,33.0362686 173.760253,58.3084267 C173.760253,83.5832831 153.274857,104.068679 128,104.068679 C102.725143,104.071378 82.239747,83.5832831 82.239747,58.3084267" fill="#3399FF"></path>
        <path d="M246.712571,159.026898 C252.750754,149.89903 256,139.206076 256,128.009477 C256,112.924532 250.118864,98.7493945 239.450506,88.1024719 L167.893977,16.5363063 L167.8669,16.5633838 C157.656143,6.3361645 143.554413,0 127.995938,0 C112.437464,0 98.3384421,6.33887226 88.1303931,16.5660916 L88.1060237,16.539014 L16.549495,88.0943486 C5.87842828,98.7548099 0,112.929947 0,128.009477 C0,143.086299 5.87572057,157.261437 16.5440796,167.913775 L81.0659899,232.43705 C83.6518484,235.339771 86.3703846,238.055657 89.2351368,240.552215 C99.754572,250.519489 113.450146,256 127.995938,256 C143.064318,256 157.236449,250.132278 167.891269,239.471817 L237.506373,169.857948 C237.682373,169.684652 237.858375,169.505939 238.034375,169.329934 L239.44509,167.921898 C242.133841,165.238505 244.516622,162.32766 246.579893,159.238104 C246.628632,159.170409 246.680079,159.105423 246.731525,159.037729 L246.712571,159.026898 L246.712571,159.026898 Z M235.120885,128.009477 C235.120885,135.027998 233.08469,141.727002 229.315564,147.462043 C227.054631,150.548893 224.696219,153.245824 222.264699,155.577208 L222.091407,155.750505 C210.645936,166.638419 197.713936,169.72256 186.739606,169.72256 C180.701423,169.72256 175.250812,168.785674 170.967222,167.705277 C145.885748,161.369112 118.621862,139.785536 106.144756,108.307796 C112.867989,111.14824 120.251902,112.718741 127.995938,112.718741 C157.095648,112.718741 181.110287,90.5502893 184.050855,62.2189691 L224.690804,102.85707 C231.416744,109.580445 235.120885,118.510646 235.120885,128.009477 L235.120885,128.009477 L235.120885,128.009477 Z M127.998646,20.8768497 C147.567233,20.8768497 163.480417,36.7957861 163.480417,56.3593708 C163.480417,75.9256635 147.564525,91.8445998 127.998646,91.8445998 C108.435475,91.8445998 92.5195834,75.9256635 92.5195834,56.3593708 C92.5195834,36.7957861 108.435475,20.8768497 127.998646,20.8768497 L127.998646,20.8768497 L127.998646,20.8768497 Z M31.3037813,153.156468 C24.5805489,146.438509 20.8764081,137.508309 20.8764081,128.012185 C20.8764081,118.513354 24.5778413,109.583152 31.3010736,102.867901 L58.7951135,75.3705721 C51.6196944,99.8000064 48.5383257,125.507505 50.190026,150.150852 C50.7830135,159.007943 52.0068963,167.504903 53.7669047,175.614652 L31.3037813,153.156468 L31.3037813,153.156468 Z M78.3068381,82.9171065 C84.345021,130.164857 121.743847,176.800652 165.855075,187.94851 C173.041324,189.762711 180.086774,190.656273 186.902068,190.656273 C186.999546,190.656273 187.09973,190.64815 187.197208,190.64815 L153.134275,224.714511 C146.416458,231.427054 137.489154,235.125858 127.995938,235.125858 C121.38643,235.125858 115.072061,233.295411 109.570004,229.943201 L109.580834,229.924246 C107.41467,228.489132 105.351399,226.867182 103.344989,225.150461 C103.187942,224.996119 103.020065,224.868853 102.865725,224.714511 L95.9827385,217.831379 C81.8295628,201.582095 72.9293353,177.404482 71.0149877,148.756354 C69.5663653,127.078007 72.1684701,104.473604 78.3068381,82.9171065 L78.3068381,82.9171065 L78.3068381,82.9171065 Z" fill="#333333"></path>
    </g>
</svg>
